src/icons/solid/signal.svg

<svg xmlns="http://www.w3.org/2000/svg" viewBox="0 0 640 512"><!--! Font Awesome Pro 6.7.2 by @fontawesome - https://fontawesome.com License - https://fontawesome.com/license (Commercial License) Copyright 2024 Fonticons, Inc. --><path d="M576 0c17.7 0 32 14.3 32 32l0 448c0 17.7-14.3 32-32 32s-32-14.3-32-32l0-448c0-17.7 14.3-32 32-32zM448 96c17.7 0 32 14.3 32 32l0 352c0 17.7-14.3 32-32 32s-32-14.3-32-32l0-352c0-17.7 14.3-32 32-32zM352 224l0 256c0 17.7-14.3 32-32 32s-32-14.3-32-32l0-256c0-17.7 14.3-32 32-32s32 14.3 32 32zM192 288c17.7 0 32 14.3 32 32l0 160c0 17.7-14.3 32-32 32s-32-14.3-32-32l0-160c0-17.7 14.3-32 32-32zM96 416l0 64c0 17.7-14.3 32-32 32s-32-14.3-32-32l0-64c0-17.7 14.3-32 32-32s32 14.3 32 32z"/></svg>

<svg xmlns="http://www.w3.org/2000/svg" viewBox="0 0 640 512"><!--! Font Awesome Pro 6.5.2 by @fontawesome - https://fontawesome.com License - https://fontawesome.com/license (Commercial License) Copyright 2024 Fonticons, Inc. --><path d="M576 0c17.7 0 32 14.3 32 32V480c0 17.7-14.3 32-32 32s-32-14.3-32-32V32c0-17.7 14.3-32 32-32zM448 96c17.7 0 32 14.3 32 32V480c0 17.7-14.3 32-32 32s-32-14.3-32-32V128c0-17.7 14.3-32 32-32zM352 224V480c0 17.7-14.3 32-32 32s-32-14.3-32-32V224c0-17.7 14.3-32 32-32s32 14.3 32 32zM192 288c17.7 0 32 14.3 32 32V480c0 17.7-14.3 32-32 32s-32-14.3-32-32V320c0-17.7 14.3-32 32-32zM96 416v64c0 17.7-14.3 32-32 32s-32-14.3-32-32V416c0-17.7 14.3-32 32-32s32 14.3 32 32z"/></svg>
